packages/svg/home.svg

<svg viewBox="0 0 24 24" fill="none" xmlns="http://www.w3.org/2000/svg">
<path d="M12 18.75C11.59 18.75 11.25 18.41 11.25 18V15C11.25 14.59 11.59 14.25 12 14.25C12.41 14.25 12.75 14.59 12.75 15V18C12.75 18.41 12.41 18.75 12 18.75Z" fill="currentColor"/>
<path d="M17.6 22.56H6.39996C4.57996 22.56 2.91996 21.16 2.61996 19.37L1.28996 11.4C1.06996 10.16 1.67996 8.57001 2.66996 7.78001L9.59996 2.23001C10.94 1.15001 13.05 1.16001 14.4 2.24001L21.33 7.78001C22.31 8.57001 22.91 10.16 22.71 11.4L21.38 19.36C21.08 21.13 19.38 22.56 17.6 22.56ZM11.99 2.93001C11.46 2.93001 10.93 3.09001 10.54 3.40001L3.60996 8.96001C3.04996 9.41001 2.64996 10.45 2.76996 11.16L4.09996 19.12C4.27996 20.17 5.32996 21.06 6.39996 21.06H17.6C18.67 21.06 19.72 20.17 19.9 19.11L21.23 11.15C21.34 10.45 20.94 9.39001 20.39 8.95001L13.46 3.41001C13.06 3.09001 12.52 2.93001 11.99 2.93001Z" fill="currentColor"/>
</svg>

<svg width="24" height="24" fill="none" xmlns="http://www.w3.org/2000/svg"><path d="M12 18.75c-.41 0-.75-.34-.75-.75v-3c0-.41.34-.75.75-.75s.75.34.75.75v3c0 .41-.34.75-.75.75Z" fill="#292D32"/><path d="M17.6 22.56H6.4c-1.82 0-3.48-1.4-3.78-3.19L1.29 11.4c-.22-1.24.39-2.83 1.38-3.62L9.6 2.23c1.34-1.08 3.45-1.07 4.8.01l6.93 5.54c.98.79 1.58 2.38 1.38 3.62l-1.33 7.96c-.3 1.77-2 3.2-3.78 3.2ZM11.99 2.93c-.53 0-1.06.16-1.45.47L3.61 8.96c-.56.45-.96 1.49-.84 2.2l1.33 7.96c.18 1.05 1.23 1.94 2.3 1.94h11.2c1.07 0 2.12-.89 2.3-1.95l1.33-7.96c.11-.7-.29-1.76-.84-2.2l-6.93-5.54c-.4-.32-.94-.48-1.47-.48Z" fill="#292D32"/></svg>
